X: 1
T: Pembroke Reel
M: 4/4
L: 1/8
R: reel
K: Dmaj
fg|:&quot;D&quot;agfe dAde|fdfg a2gf|&quot;A&quot;eAcd eAcd|egfe &quot;D&quot;f2fg|
&quot;D&quot;agfe dAde|fdfg a2gf|&quot;A&quot;eAcd egfe|1&quot;D&quot;dcde d2fg:|2&quot;D&quot;dcde d2AG||
|:&quot;D&quot;FDFA dfed|&quot;A&quot;cAce g2fe|&quot;D&quot;dAdf a2gf|&quot;A&quot;feed e2AG|
&quot;D&quot;FDFA dfed|&quot;A&quot;cAce g2fe|&quot;D&quot;fagf &quot;A&quot;egfe|1&quot;D&quot;dcde d2AG:|2&quot;D&quot;dcde d2||
